!!!OTL: Die Unbestechliche Je ne m'en puis conforter
!!!ARE: Europa, Mitteleuropa, France
!!!YOR: 7, S. 36
!!    11?? Handschrift (Trouvere)
!!!SCT: Q3144F
!!!YEM: Copyright 1995, estate of Helmut Schaffrath.
**kern
*ICvox
*Ivox
*M3/4
*k[f#]
*G:
=1
{2cc
4cc
=2
2b
4b
=3
2g
4b
=4
8cc
8b
4a
4r}
=5
{2a
4g
=6
2f#
4f#
=7
2f#
4e
=8
2f#
4r}
=9
{2e
4f#
=10
2g
4a
=11
4a
4g
8g
8f#
=12
2g
4r}
==
!!!AGN: Ballade, Liebes - Handel
!! Melodievergleich zu Q0144C, anderes Lied.
!!!ONB: ESAC (Essen Associative Code) Database: BALLADE
!!!AMT: simple triple
!!!AIN: vox
!!!EED: Helmut Schaffrath
!!!EEV: 1.0
*-
